X:1
T:Courante
T:Courante
T:Elisabeth Jacquet de la Guerre
T:Suite in D Minor  N°3
%%score { ( 1 3 ) | ( 2 4 ) }
L:1/8
M:3/2
K:C
V:1 treble nm="Piano" snm="Pno."
V:3 treble 
V:2 bass 
V:4 bass 
V:1
 z[Q:1/4=144]"^Allegro" d | [Ad]6 c2 P_B3 A |{A} _B3 A PG2 AG PF3 E | PF2 D2 M_B2 A2 d3 e | %4
{e} f3 e Pd2 cB Mc3 d | P^c3 B/c/ d3 =c P_B3 A | PG3 F PE3 A MD3 E | P^C2 MD2 E2 MF2 G3 A | %8
 PE3 (e c2) PA2 (d2 B2) | P^G2 MA2 B2 Mc2 PB3 A | A6- A4 ::"_Reprise" z E | [^CE]6 E2 F2 G2 | %13
 A3 A PG3 A PF3 E | PD3 A MB2 !turn!^c2 d2 !turn!e2 | Mf3 e d2 cB Mc3 c | c3 d P_B3 A PG3 F | %17
 E3 G A2 !turn!_B2 c2 z C | MD3 E MF3 G PE3 D/E/ | [CF]6 [FA]2 G2 A2 | _B6 B2 A2 =B2 | %21
 [Ac]2 d2 P^c2 Md2 e2 f2 | Pe4 d6 P^c2 | [Ad]6- [Ad]4 :| %24
V:2
 z2 | z4 MD,6 D,2 | G,,2 G,F, E,2 F,E, D,2 ^C,2 | D,6 D,6 | D,2 E,2 F,2 G,2 A,2 _B,2 | %5
 A,2 G,2 [A,D-]4 D4 | ^C2 D2 A,6 G,2 | A,G, F,2 E,2 z2 A,2 B,2 | z2 C4 z2 A,2 D2 | %9
 B,2 A,2 ^G,2 A,2 E,4 | A,,6 MA,,4 :: z2 | z4 MA,8- | A,,2 A,,2 B,,2 ^C,2 D,2 E,2 | %14
 z2 A,2 G,4 F,2 ^C,2 | D,2 DE F2 G2 A2 G2 | ^F2 D2 G2 G,2 A,2 B,2 | C2 D2 C2 _B,2 A,4 | %18
 _B,,2 C,2 D,2 _B,,2 C,4 | F,,2 F,,2 A,,2 F,,2 C,2 P_B,,A,, | G,,2 A,,2 _B,,2 G,,2 D,2 PC,=B,, | %21
 z2 E,2 z2 B,2 ^C2 D2 | ^C2 AG F2 GF E2 A2 | D,6 MD,4 :| %24
V:3
 x2 | F6 z2 ^F4 | x12 | x8 z A G2 | A4 x8 | x12 | x12 | x12 | x12 | x8 ^G3 A | z E [^CE]4- [CE]4 :: %11
 x2 | A,6 ^C2 D2 E2 | F3 x9 | x12 | x12 | A4 x8 | PE4 F2 x6 | x12 | A,6 C2 E2 ^F2 | %20
 G2 FE PD2 E2 F4 | E2 z2 x8 | z4 A4 G4 | F6- F4 :| %24
V:4
 x2 | D,,8 D,,2 z2 | x12 | z2 z2 D,,2 D,C, _B,,2 G,,2 | D4 x8 | x4 ^F,2 D,2 G,2 =F,2 | %6
 E,2 D,2 ^C,2 D,2 _B,,4 | A,,2 x4 D,4 z2 | A,4 G,2 F,4 D,2 | E,2 C,2 B,,2 A,,2 E,2 E,,2 | %10
 z2 z2 A,,,2- A,,,4 :: x2 | A,,12 | A,2 x10 | F,6 E,2 x4 | x12 | x12 | z8 z2 A,,2 | x10 C,,2 | %19
 x12 | x12 | A,,4 A,8 | A,4- A,2 A,2- A,4 | z2 z2 D,,2- D,,4 :| %24

